assets/images/telegram.svg

<svg width="21" height="18" viewBox="0 0 21 18" fill="none" xmlns="http://www.w3.org/2000/svg">
<path d="M20.5215 0.992836L17.3845 16.9147C17.3845 16.9147 16.9456 18.0186 15.7399 17.4892L8.50209 11.902L8.46852 11.8855C9.44619 11.0017 17.0274 4.13908 17.3587 3.828C17.8716 3.34623 17.5532 3.05942 16.9577 3.42335L5.7593 10.5832L1.43899 9.11968C1.43899 9.11968 0.759099 8.8762 0.693691 8.34677C0.627424 7.81648 1.46136 7.52967 1.46136 7.52967L19.0739 0.573453C19.0739 0.573453 20.5215 -0.0668867 20.5215 0.992836V0.992836Z" fill="#004B98"/>
</svg>

<svg width="21" height="18" fill="none" xmlns="http://www.w3.org/2000/svg"><path d="m20.521.993-3.137 15.922s-.438 1.104-1.644.574l-7.238-5.587-.033-.016c.977-.884 8.558-7.747 8.89-8.058.513-.482.194-.769-.401-.405l-11.199 7.16L1.44 9.12s-.68-.244-.745-.773c-.067-.53.767-.817.767-.817L19.074.573s1.447-.64 1.447.42Z" fill="#004B98"/></svg>
